images/3233699.svg

<?xml version="1.0" encoding="UTF-8"?>
<svg xmlns="http://www.w3.org/2000/svg" xmlns:xlink="http://www.w3.org/1999/xlink" width="300pt" height="300pt" viewBox="0 0 300 300" version="1.1">
<defs>
<g>
<symbol overflow="visible" id="glyph0-0">
<path style="stroke:none;" d="M 0.796875 2.828125 L 0.796875 -11.28125 L 8.796875 -11.28125 L 8.796875 2.828125 Z M 1.703125 1.9375 L 7.90625 1.9375 L 7.90625 -10.390625 L 1.703125 -10.390625 Z M 1.703125 1.9375 "/>
</symbol>
<symbol overflow="visible" id="glyph0-1">
<path style="stroke:none;" d="M 1.578125 -11.671875 L 3.703125 -11.671875 L 8.875 -1.90625 L 8.875 -11.671875 L 10.40625 -11.671875 L 10.40625 0 L 8.28125 0 L 3.109375 -9.765625 L 3.109375 0 L 1.578125 0 Z M 1.578125 -11.671875 "/>
</symbol>
<symbol overflow="visible" id="glyph0-2">
<path style="stroke:none;" d="M 6.3125 -10.59375 C 5.164062 -10.59375 4.253906 -10.164062 3.578125 -9.3125 C 2.898438 -8.457031 2.5625 -7.296875 2.5625 -5.828125 C 2.5625 -4.359375 2.898438 -3.195312 3.578125 -2.34375 C 4.253906 -1.488281 5.164062 -1.0625 6.3125 -1.0625 C 7.457031 -1.0625 8.363281 -1.488281 9.03125 -2.34375 C 9.695312 -3.195312 10.03125 -4.359375 10.03125 -5.828125 C 10.03125 -7.296875 9.695312 -8.457031 9.03125 -9.3125 C 8.363281 -10.164062 7.457031 -10.59375 6.3125 -10.59375 Z M 6.3125 -11.875 C 7.945312 -11.875 9.253906 -11.328125 10.234375 -10.234375 C 11.210938 -9.140625 11.703125 -7.671875 11.703125 -5.828125 C 11.703125 -3.984375 11.210938 -2.507812 10.234375 -1.40625 C 9.253906 -0.3125 7.945312 0.234375 6.3125 0.234375 C 4.664062 0.234375 3.351562 -0.3125 2.375 -1.40625 C 1.394531 -2.507812 0.90625 -3.984375 0.90625 -5.828125 C 0.90625 -7.671875 1.394531 -9.140625 2.375 -10.234375 C 3.351562 -11.328125 4.664062 -11.875 6.3125 -11.875 Z M 6.3125 -11.875 "/>
</symbol>
</g>
</defs>
<g id="surface32405">
<rect x="0" y="0" width="300" height="300" style="fill:rgb(100%,100%,100%);fill-opacity:1;stroke:none;"/>
<path style="fill:none;stroke-width:1.2;stroke-linecap:butt;stroke-linejoin:miter;stroke:rgb(0%,0%,0%);stroke-opacity:1;stroke-miterlimit:10;" d="M 162.65625 126.683594 L 161.433594 145.769531 "/>
<path style="fill:none;stroke-width:1.2;stroke-linecap:butt;stroke-linejoin:miter;stroke:rgb(0%,0%,100%);stroke-opacity:1;stroke-miterlimit:10;" d="M 161.433594 145.769531 L 160.214844 164.855469 "/>
<path style="fill:none;stroke-width:1.2;stroke-linecap:butt;stroke-linejoin:miter;stroke:rgb(0%,0%,100%);stroke-opacity:1;stroke-miterlimit:10;" d="M 160.214844 164.855469 L 143.074219 173.339844 "/>
<path style="fill:none;stroke-width:1.2;stroke-linecap:butt;stroke-linejoin:miter;stroke:rgb(0%,0%,0%);stroke-opacity:1;stroke-miterlimit:10;" d="M 143.074219 173.339844 L 125.933594 181.824219 "/>
<path style="fill:none;stroke-width:1.2;stroke-linecap:butt;stroke-linejoin:miter;stroke:rgb(0%,0%,100%);stroke-opacity:1;stroke-miterlimit:10;" d="M 160.214844 164.855469 L 176.132812 175.457031 "/>
<path style="fill:none;stroke-width:1.2;stroke-linecap:butt;stroke-linejoin:miter;stroke:rgb(0%,0%,0%);stroke-opacity:1;stroke-miterlimit:10;" d="M 176.132812 175.457031 L 192.050781 186.054688 "/>
<path style=" stroke:none;fill-rule:nonzero;fill:rgb(100%,100%,100%);fill-opacity:1;" d="M 154.214844 155.355469 L 166.214844 155.355469 L 166.214844 174.355469 L 154.214844 174.355469 Z M 154.214844 155.355469 "/>
<g style="fill:rgb(0%,0%,100%);fill-opacity:1;">
  <use xlink:href="#glyph0-1" x="154.214844" y="170.207031"/>
</g>
<path style="fill:none;stroke-width:1.2;stroke-linecap:butt;stroke-linejoin:miter;stroke:rgb(0%,0%,0%);stroke-opacity:1;stroke-miterlimit:10;" d="M 125.933594 181.824219 L 94.097656 160.625 "/>
<path style="fill:none;stroke-width:1.2;stroke-linecap:butt;stroke-linejoin:miter;stroke:rgb(0%,0%,0%);stroke-opacity:1;stroke-miterlimit:10;" d="M 94.097656 160.625 L 58.234375 173.917969 "/>
<path style="fill:none;stroke-width:1.2;stroke-linecap:butt;stroke-linejoin:miter;stroke:rgb(0%,0%,0%);stroke-opacity:1;stroke-miterlimit:10;" d="M 87.382812 153.515625 L 58.691406 164.152344 "/>
<path style="fill:none;stroke-width:1.2;stroke-linecap:butt;stroke-linejoin:miter;stroke:rgb(100%,0%,0%);stroke-opacity:1;stroke-miterlimit:10;" d="M 92.539062 122.40625 L 93.316406 141.515625 "/>
<path style="fill:none;stroke-width:1.2;stroke-linecap:butt;stroke-linejoin:miter;stroke:rgb(0%,0%,0%);stroke-opacity:1;stroke-miterlimit:10;" d="M 93.316406 141.515625 L 94.097656 160.625 "/>
<path style="fill:none;stroke-width:1.2;stroke-linecap:butt;stroke-linejoin:miter;stroke:rgb(0%,0%,0%);stroke-opacity:1;stroke-miterlimit:10;" d="M 58.234375 173.917969 L 34.507812 143.917969 "/>
<path style="fill:none;stroke-width:1.2;stroke-linecap:butt;stroke-linejoin:miter;stroke:rgb(0%,0%,0%);stroke-opacity:1;stroke-miterlimit:10;" d="M 34.507812 143.917969 L 55.707031 112.082031 "/>
<path style="fill:none;stroke-width:1.2;stroke-linecap:butt;stroke-linejoin:miter;stroke:rgb(0%,0%,0%);stroke-opacity:1;stroke-miterlimit:10;" d="M 44.117188 145.722656 L 61.078125 120.253906 "/>
<path style="fill:none;stroke-width:1.2;stroke-linecap:butt;stroke-linejoin:miter;stroke:rgb(0%,0%,0%);stroke-opacity:1;stroke-miterlimit:10;" d="M 55.707031 112.082031 L 74.121094 117.242188 "/>
<path style="fill:none;stroke-width:1.2;stroke-linecap:butt;stroke-linejoin:miter;stroke:rgb(100%,0%,0%);stroke-opacity:1;stroke-miterlimit:10;" d="M 74.121094 117.242188 L 92.539062 122.40625 "/>
<path style=" stroke:none;fill-rule:nonzero;fill:rgb(100%,100%,100%);fill-opacity:1;" d="M 86.539062 112.90625 L 99.539062 112.90625 L 99.539062 131.90625 L 86.539062 131.90625 Z M 86.539062 112.90625 "/>
<g style="fill:rgb(100%,0%,0%);fill-opacity:1;">
  <use xlink:href="#glyph0-2" x="86.539062" y="127.757812"/>
</g>
<path style="fill:none;stroke-width:1.2;stroke-linecap:butt;stroke-linejoin:miter;stroke:rgb(0%,0%,0%);stroke-opacity:1;stroke-miterlimit:10;" d="M 192.050781 186.054688 L 190.828125 205.144531 "/>
<path style="fill:none;stroke-width:1.2;stroke-linecap:butt;stroke-linejoin:miter;stroke:rgb(0%,0%,100%);stroke-opacity:1;stroke-miterlimit:10;" d="M 190.828125 205.144531 L 189.609375 224.230469 "/>
<path style="fill:none;stroke-width:1.2;stroke-linecap:butt;stroke-linejoin:miter;stroke:rgb(0%,0%,0%);stroke-opacity:1;stroke-miterlimit:10;" d="M 200.789062 190.449219 L 199.8125 205.71875 "/>
<path style="fill:none;stroke-width:1.2;stroke-linecap:butt;stroke-linejoin:miter;stroke:rgb(0%,0%,100%);stroke-opacity:1;stroke-miterlimit:10;" d="M 199.8125 205.71875 L 198.832031 220.984375 "/>
<path style="fill:none;stroke-width:1.2;stroke-linecap:butt;stroke-linejoin:miter;stroke:rgb(0%,0%,0%);stroke-opacity:1;stroke-miterlimit:10;" d="M 226.328125 169.085938 L 192.050781 186.054688 "/>
<path style="fill:none;stroke-width:1.2;stroke-linecap:butt;stroke-linejoin:miter;stroke:rgb(0%,0%,100%);stroke-opacity:1;stroke-miterlimit:10;" d="M 189.609375 224.230469 L 205.527344 234.828125 "/>
<path style="fill:none;stroke-width:1.2;stroke-linecap:butt;stroke-linejoin:miter;stroke:rgb(0%,0%,0%);stroke-opacity:1;stroke-miterlimit:10;" d="M 205.527344 234.828125 L 221.445312 245.429688 "/>
<path style=" stroke:none;fill-rule:nonzero;fill:rgb(100%,100%,100%);fill-opacity:1;" d="M 183.609375 214.730469 L 195.609375 214.730469 L 195.609375 233.730469 L 183.609375 233.730469 Z M 183.609375 214.730469 "/>
<g style="fill:rgb(0%,0%,100%);fill-opacity:1;">
  <use xlink:href="#glyph0-1" x="183.609375" y="229.582031"/>
</g>
<path style="fill:none;stroke-width:1.2;stroke-linecap:butt;stroke-linejoin:miter;stroke:rgb(0%,0%,0%);stroke-opacity:1;stroke-miterlimit:10;" d="M 221.445312 245.429688 L 238.585938 236.945312 "/>
<path style="fill:none;stroke-width:1.2;stroke-linecap:butt;stroke-linejoin:miter;stroke:rgb(0%,0%,100%);stroke-opacity:1;stroke-miterlimit:10;" d="M 238.585938 236.945312 L 255.722656 228.460938 "/>
<path style="fill:none;stroke-width:1.2;stroke-linecap:butt;stroke-linejoin:miter;stroke:rgb(0%,0%,0%);stroke-opacity:1;stroke-miterlimit:10;" d="M 220.878906 235.667969 L 234.589844 228.878906 "/>
<path style="fill:none;stroke-width:1.2;stroke-linecap:butt;stroke-linejoin:miter;stroke:rgb(0%,0%,100%);stroke-opacity:1;stroke-miterlimit:10;" d="M 234.589844 228.878906 L 248.300781 222.089844 "/>
<path style="fill:none;stroke-width:1.2;stroke-linecap:butt;stroke-linejoin:miter;stroke:rgb(0%,0%,100%);stroke-opacity:1;stroke-miterlimit:10;" d="M 255.722656 228.460938 L 256.945312 209.375 "/>
<path style="fill:none;stroke-width:1.2;stroke-linecap:butt;stroke-linejoin:miter;stroke:rgb(0%,0%,0%);stroke-opacity:1;stroke-miterlimit:10;" d="M 256.945312 209.375 L 258.167969 190.289062 "/>
<path style=" stroke:none;fill-rule:nonzero;fill:rgb(100%,100%,100%);fill-opacity:1;" d="M 249.722656 218.960938 L 261.722656 218.960938 L 261.722656 237.960938 L 249.722656 237.960938 Z M 249.722656 218.960938 "/>
<g style="fill:rgb(0%,0%,100%);fill-opacity:1;">
  <use xlink:href="#glyph0-1" x="249.722656" y="233.8125"/>
</g>
<path style="fill:none;stroke-width:1.2;stroke-linecap:butt;stroke-linejoin:miter;stroke:rgb(0%,0%,0%);stroke-opacity:1;stroke-miterlimit:10;" d="M 258.167969 190.289062 L 226.328125 169.085938 "/>
<path style="fill:none;stroke-width:1.2;stroke-linecap:butt;stroke-linejoin:miter;stroke:rgb(0%,0%,0%);stroke-opacity:1;stroke-miterlimit:10;" d="M 249.992188 195.65625 L 224.523438 178.695312 "/>
<path style="fill:none;stroke-width:1.2;stroke-linecap:butt;stroke-linejoin:miter;stroke:rgb(0%,0%,0%);stroke-opacity:1;stroke-miterlimit:10;" d="M 226.328125 169.085938 L 228.773438 130.914062 "/>
<path style="fill:none;stroke-width:1.2;stroke-linecap:butt;stroke-linejoin:miter;stroke:rgb(0%,0%,0%);stroke-opacity:1;stroke-miterlimit:10;" d="M 228.773438 130.914062 L 263.050781 113.945312 "/>
<path style="fill:none;stroke-width:1.2;stroke-linecap:butt;stroke-linejoin:miter;stroke:rgb(0%,0%,0%);stroke-opacity:1;stroke-miterlimit:10;" d="M 228.207031 121.152344 L 255.628906 107.574219 "/>
<path style="fill:none;stroke-width:1.2;stroke-linecap:butt;stroke-linejoin:miter;stroke:rgb(0%,0%,0%);stroke-opacity:1;stroke-miterlimit:10;" d="M 196.9375 109.710938 L 228.773438 130.914062 "/>
<path style="fill:none;stroke-width:1.2;stroke-linecap:butt;stroke-linejoin:miter;stroke:rgb(0%,0%,0%);stroke-opacity:1;stroke-miterlimit:10;" d="M 263.050781 113.945312 L 264.273438 94.855469 "/>
<path style="fill:none;stroke-width:1.2;stroke-linecap:butt;stroke-linejoin:miter;stroke:rgb(0%,0%,100%);stroke-opacity:1;stroke-miterlimit:10;" d="M 264.273438 94.855469 L 265.492188 75.769531 "/>
<path style="fill:none;stroke-width:1.2;stroke-linecap:butt;stroke-linejoin:miter;stroke:rgb(0%,0%,100%);stroke-opacity:1;stroke-miterlimit:10;" d="M 265.492188 75.769531 L 249.574219 65.171875 "/>
<path style="fill:none;stroke-width:1.2;stroke-linecap:butt;stroke-linejoin:miter;stroke:rgb(0%,0%,0%);stroke-opacity:1;stroke-miterlimit:10;" d="M 249.574219 65.171875 L 233.65625 54.570312 "/>
<path style="fill:none;stroke-width:1.2;stroke-linecap:butt;stroke-linejoin:miter;stroke:rgb(0%,0%,100%);stroke-opacity:1;stroke-miterlimit:10;" d="M 257.320312 81.140625 L 244.585938 72.660156 "/>
<path style="fill:none;stroke-width:1.2;stroke-linecap:butt;stroke-linejoin:miter;stroke:rgb(0%,0%,0%);stroke-opacity:1;stroke-miterlimit:10;" d="M 244.585938 72.660156 L 231.851562 64.179688 "/>
<path style=" stroke:none;fill-rule:nonzero;fill:rgb(100%,100%,100%);fill-opacity:1;" d="M 259.492188 66.269531 L 271.492188 66.269531 L 271.492188 85.269531 L 259.492188 85.269531 Z M 259.492188 66.269531 "/>
<g style="fill:rgb(0%,0%,100%);fill-opacity:1;">
  <use xlink:href="#glyph0-1" x="259.492188" y="81.121094"/>
</g>
<path style="fill:none;stroke-width:1.2;stroke-linecap:butt;stroke-linejoin:miter;stroke:rgb(0%,0%,0%);stroke-opacity:1;stroke-miterlimit:10;" d="M 233.65625 54.570312 L 199.378906 71.539062 "/>
<path style="fill:none;stroke-width:1.2;stroke-linecap:butt;stroke-linejoin:miter;stroke:rgb(0%,0%,0%);stroke-opacity:1;stroke-miterlimit:10;" d="M 199.378906 71.539062 L 196.9375 109.710938 "/>
<path style="fill:none;stroke-width:1.2;stroke-linecap:butt;stroke-linejoin:miter;stroke:rgb(0%,0%,0%);stroke-opacity:1;stroke-miterlimit:10;" d="M 208.117188 75.933594 L 206.160156 106.46875 "/>
</g>
</svg>

<svg xmlns="http://www.w3.org/2000/svg" xmlns:xlink="http://www.w3.org/1999/xlink" width="300pt" height="300pt" viewBox="0 0 300 300"><defs><symbol overflow="visible"><path d="M.797 2.828v-14.11h8V2.83zm.906-.89h6.203v-12.33H1.703zm0 0"/></symbol><symbol overflow="visible" id="a"><path d="M1.578-11.672h2.125l5.172 9.766v-9.766h1.53V0H8.282L3.11-9.766V0H1.577zm0 0"/></symbol><symbol overflow="visible" id="b"><path d="M6.313-10.594c-1.15 0-2.06.43-2.735 1.28-.68.857-1.015 2.017-1.015 3.486 0 1.47.335 2.633 1.015 3.484.676.856 1.586 1.28 2.735 1.28 1.144.002 2.05-.424 2.718-1.28.665-.85 1-2.015 1-3.484 0-1.47-.335-2.63-1-3.484-.667-.852-1.573-1.282-2.717-1.282zm0-1.28c1.632 0 2.94.546 3.92 1.64.978 1.093 1.47 2.562 1.47 4.406 0 1.844-.492 3.32-1.47 4.422-.98 1.093-2.288 1.64-3.92 1.64-1.65 0-2.96-.546-3.938-1.64-.98-1.102-1.47-2.578-1.47-4.422 0-1.844.49-3.313 1.47-4.406.977-1.094 2.29-1.64 3.938-1.64zm0 0"/></symbol></defs><g><path fill="#fff" d="M0 0h300v300H0z"/><path d="M162.656 126.684l-1.222 19.086" stroke-width="1.2" stroke="#000" stroke-miterlimit="10" fill="none"/><path d="M161.434 145.77l-1.22 19.085M160.215 164.855l-17.14 8.485" stroke-width="1.2" stroke="#00f" stroke-miterlimit="10" fill="none"/><path d="M143.074 173.34l-17.14 8.484" stroke-width="1.2" stroke="#000" stroke-miterlimit="10" fill="none"/><path d="M160.215 164.855l15.918 10.602" stroke-width="1.2" stroke="#00f" stroke-miterlimit="10" fill="none"/><path d="M176.133 175.457l15.918 10.598" stroke-width="1.2" stroke="#000" stroke-miterlimit="10" fill="none"/><path d="M154.215 155.355h12v19h-12zm0 0" fill="#fff"/><use xlink:href="#a" x="154.215" y="170.207" fill="#00f"/><path d="M125.934 181.824l-31.836-21.2M94.098 160.625l-35.864 13.293M87.383 153.516L58.69 164.152" stroke-width="1.2" stroke="#000" stroke-miterlimit="10" fill="none"/><path d="M92.54 122.406l.776 19.11" stroke-width="1.2" stroke="#f00" stroke-miterlimit="10" fill="none"/><path d="M93.316 141.516l.782 19.11M58.234 173.918l-23.726-30M34.508 143.918l21.2-31.836M44.117 145.723l16.96-25.47M55.707 112.082l18.414 5.16" stroke-width="1.2" stroke="#000" stroke-miterlimit="10" fill="none"/><path d="M74.12 117.242l18.42 5.164" stroke-width="1.2" stroke="#f00" stroke-miterlimit="10" fill="none"/><path d="M86.54 112.906h13v19h-13zm0 0" fill="#fff"/><use xlink:href="#b" x="86.539" y="127.758" fill="#f00"/><path d="M192.05 186.055l-1.222 19.09" stroke-width="1.2" stroke="#000" stroke-miterlimit="10" fill="none"/><path d="M190.828 205.145l-1.22 19.085" stroke-width="1.2" stroke="#00f" stroke-miterlimit="10" fill="none"/><path d="M200.79 190.45l-.977 15.27" stroke-width="1.2" stroke="#000" stroke-miterlimit="10" fill="none"/><path d="M199.813 205.72l-.98 15.264" stroke-width="1.2" stroke="#00f" stroke-miterlimit="10" fill="none"/><path d="M226.328 169.086l-34.277 16.97" stroke-width="1.2" stroke="#000" stroke-miterlimit="10" fill="none"/><path d="M189.61 224.23l15.917 10.598" stroke-width="1.2" stroke="#00f" stroke-miterlimit="10" fill="none"/><path d="M205.527 234.828l15.918 10.602" stroke-width="1.2" stroke="#000" stroke-miterlimit="10" fill="none"/><path d="M183.61 214.73h12v19h-12zm0 0" fill="#fff"/><use xlink:href="#a" x="183.609" y="229.582" fill="#00f"/><path d="M221.445 245.43l17.14-8.485" stroke-width="1.2" stroke="#000" stroke-miterlimit="10" fill="none"/><path d="M238.586 236.945l17.137-8.484" stroke-width="1.2" stroke="#00f" stroke-miterlimit="10" fill="none"/><path d="M220.88 235.668l13.71-6.79" stroke-width="1.2" stroke="#000" stroke-miterlimit="10" fill="none"/><path d="M234.59 228.88l13.71-6.79M255.723 228.46l1.222-19.085" stroke-width="1.2" stroke="#00f" stroke-miterlimit="10" fill="none"/><path d="M256.945 209.375l1.223-19.086" stroke-width="1.2" stroke="#000" stroke-miterlimit="10" fill="none"/><path d="M249.723 218.96h12v19h-12zm0 0" fill="#fff"/><use xlink:href="#a" x="249.723" y="233.813" fill="#00f"/><path d="M258.168 190.29l-31.84-21.204M249.992 195.656l-25.47-16.96M226.328 169.086l2.445-38.172M228.773 130.914l34.278-16.97M228.207 121.152l27.422-13.578M196.938 109.71l31.835 21.204M263.05 113.945l1.223-19.09" stroke-width="1.2" stroke="#000" stroke-miterlimit="10" fill="none"/><path d="M264.273 94.855l1.22-19.085M265.492 75.77l-15.918-10.598" stroke-width="1.2" stroke="#00f" stroke-miterlimit="10" fill="none"/><path d="M249.574 65.172L233.656 54.57" stroke-width="1.2" stroke="#000" stroke-miterlimit="10" fill="none"/><path d="M257.32 81.14l-12.734-8.48" stroke-width="1.2" stroke="#00f" stroke-miterlimit="10" fill="none"/><path d="M244.586 72.66l-12.734-8.48" stroke-width="1.2" stroke="#000" stroke-miterlimit="10" fill="none"/><path d="M259.492 66.27h12v19h-12zm0 0" fill="#fff"/><use xlink:href="#a" x="259.492" y="81.121" fill="#00f"/><path d="M233.656 54.57L199.38 71.54M199.38 71.54l-2.442 38.17M208.117 75.934l-1.957 30.535" stroke-width="1.2" stroke="#000" stroke-miterlimit="10" fill="none"/></g></svg>
